public/images/jit.svg

<svg width="150" height="89" viewBox="0 0 150 89" fill="none" xmlns="http://www.w3.org/2000/svg">
<path d="M69.148 48.3198C69.1313 49.8348 68.8757 51.2056 68.3814 52.4321C67.8869 53.6588 67.0575 54.8935 65.8941 56.1362L63.3638 54.5249C64.0784 53.5628 64.5773 52.6189 64.8599 51.6929C65.1424 50.7669 65.2837 49.6501 65.2837 48.3433V34.1528H69.148V48.3198ZM83.1597 38.7944H86.563V41.6929H83.1597V46.7563C83.1597 47.3414 83.2304 47.8025 83.3716 48.1392C83.5128 48.4757 83.7371 48.7165 84.0444 48.8608C84.3519 49.0051 84.7637 49.0766 85.2788 49.0767C85.6195 49.0767 86.0731 49.033 86.6382 48.9448V51.9155C86.2976 52.0037 85.9171 52.0715 85.4976 52.1196C85.0779 52.1677 84.668 52.1919 84.2691 52.1919C82.6571 52.1919 81.4333 51.7932 80.5982 50.9956C79.763 50.1979 79.3452 48.9445 79.3452 47.2368V41.6929H77.2642V38.7944H79.3452L80.0435 34.1528H83.1597V38.7944ZM75.8296 51.9487H72.0025V38.7915H75.8296V51.9487ZM73.9234 32.8638C74.7128 32.8638 75.305 33.0403 75.6997 33.3931C76.0945 33.7458 76.2925 34.2429 76.2925 34.8843C76.2925 35.5256 76.0944 36.0209 75.6997 36.3696C75.305 36.7183 74.7127 36.8921 73.9234 36.8921C73.1259 36.8921 72.53 36.7181 72.1353 36.3696C71.7406 36.0209 71.5425 35.5256 71.5425 34.8843C71.5425 34.2349 71.7405 33.736 72.1353 33.3872C72.53 33.0385 73.1258 32.8638 73.9234 32.8638Z" fill="black"/>
</svg>

<svg xmlns="http://www.w3.org/2000/svg" fill="none" viewBox="0 0 150 89">
  <path
    fill="black"
    d="M69.148 48.32q-.026 2.271-.767 4.112-.743 1.84-2.487 3.704l-2.53-1.612q1.072-1.443 1.495-2.832t.424-3.35v-14.19h3.864zm14.012-9.526h3.403v2.898H83.16v5.064q0 .877.212 1.383.211.505.673.721.462.217 1.234.216.511 0 1.359-.132v2.971q-.511.132-1.14.204-.63.072-1.229.072-2.417 0-3.67-1.196t-1.253-3.759v-5.544h-2.082v-2.898h2.082l.697-4.642h3.117zm-7.33 13.154h-3.828V38.791h3.827zm-1.906-19.085q1.184 0 1.776.53.592.529.592 1.49 0 .963-.592 1.486-.593.523-1.776.523-1.197 0-1.79-.523-.591-.523-.591-1.485 0-.974.592-1.497t1.789-.524"
  />
</svg>
